X: 34909
T: Rock Of Dunamaise
R: hornpipe
M: 4/4
K: Gmajor
B,C|:DGBG cGBG|DGBG (3FED B,C|DEGA BABd|(3efg dB AGEG|
DEGA BGcG|BGAG (3FED B,C|DEGA BABd|1 (3efg dB G3 E:|2 (3efg dB G2 Bd||
|:gggd edgd|edgd edBA|GFGA BABd|(3efg dB AGEA|
g2 gd edgd|edgd edBA|GFGA BABd|1 (3efg dB G2 Bd:|2 (3efg dB G3 E||

